svgs/light/planet-moon.svg

<svg xmlns="http://www.w3.org/2000/svg" viewBox="0 0 576 512"><!-- Font Awesome Pro 6.0.0-alpha2 by @fontawesome - https://fontawesome.com License - https://fontawesome.com/license (Commercial License) --><path d="M224 64C100.25 64 0 164.25 0 288S100.25 512 224 512S448 411.75 448 288S347.75 64 224 64ZM55 202.875C82.25 142.75 142 104.125 208 104C224.375 104.25 232 113.625 232 124.625C232 135.375 229 145.875 223.25 154.875L175.25 210.125C161.25 226.375 160.875 253.25 176.625 267.875C185 275.75 196 280 207.5 280H272C285.25 280 296 290.75 296 304V320.875C296 329.625 294 338.125 290.125 346L249.75 410.625C246.75 416.5 241.25 420.625 234.75 421.75C231.375 422.25 228.125 422.75 223.875 423.125C219.5 423 216 419.5 216 415.125C216 344.125 216 370.5 216 360H208C194.75 360 184 349.25 184 336V300.625L127 243.75C119.5 236.25 109.375 232 98.75 232H73.75C58.25 232 49.125 216 55 202.875ZM224 480C118.125 480 32 393.875 32 288C32 274.5 33.5 261.125 36.25 247.875C46 258.125 59.625 264 73.75 264H98.75C100.875 264 102.875 264.875 104.375 266.375L152 314V336C152 357.625 164.5 377.25 184 386.625C184 388.25 184 387 184 415.125C184 437.125 201.875 455.125 223.875 455.125C228.75 455.125 238.375 453.5 240 453.25C256.625 450.5 270.875 439.875 278.375 424.875L318.75 360.25C324.75 348 328 334.5 328 320.875V304C328 273.125 302.875 248 272 248H207.5C203.875 248 200.5 246.625 198 244.125C195.125 241.125 194.875 236.375 197.625 233.25L247.375 175.875L248.375 174.75L249.25 173.5C258.875 159 264 142.001 264 124.625C264 115.625 261.625 106.875 257.25 99.125C347.25 114.875 416 193.5 416 288C416 393.875 329.875 480 224 480ZM512 0C476.625 0 448 28.625 448 64S476.625 128 512 128S576 99.375 576 64S547.375 0 512 0ZM512 96C494.375 96 480 81.625 480 64S494.375 32 512 32S544 46.375 544 64S529.625 96 512 96Z"/></svg>

<svg xmlns="http://www.w3.org/2000/svg" viewBox="0 0 576 512"><!--! Font Awesome Pro 6.0.0-alpha3 by @fontawesome - https://fontawesome.com License - https://fontawesome.com/license (Commercial License) --><path d="M224 64C100.2 64 0 164.2 0 288s100.2 224 224 224s224-100.2 224-224S347.8 64 224 64zM55 202.9C82.25 142.8 141.1 104.1 208 104c16.38 .25 24 9.625 24 20.62c0 10.75-3 21.25-8.75 30.25l-48 55.25c-14 16.25-14.37 43.13 1.375 57.75C185 275.8 196 280 207.5 280H272c13.25 0 24 10.75 24 24v16.88c0 8.75-2 17.25-5.875 25.13l-40.38 64.62c-3 5.875-8.5 10-15 11.13c-3.375 .4999-6.625 1-10.87 1.375C219.5 423 216 419.5 216 415.1c0-71 0-44.63 0-55.13H208c-13.25 0-24-10.75-24-24V300.6L127 243.8C119.5 236.2 109.4 232 98.75 232h-25C58.25 232 49.12 216 55 202.9zM224 480c-105.9 0-192-86.13-192-192c0-13.5 1.5-26.88 4.25-40.12C45.1 258.1 59.62 264 73.75 264h25c2.125 0 4.125 .875 5.625 2.375L152 314V336c0 21.62 12.5 41.25 32 50.63v28.5c0 22 17.88 40 39.88 40c4.875 0 14.5-1.625 16.12-1.875c16.62-2.75 30.88-13.37 38.38-28.37l40.38-64.63C324.8 348 328 334.5 328 320.9V304c0-30.88-25.12-56-56-56H207.5c-3.625 0-7-1.375-9.5-3.875c-2.875-3-3.125-7.75-.3747-10.88l50.75-58.5l.875-1.25C258.9 159 264 142 264 124.6c0-9-2.375-17.75-6.75-25.5C347.2 114.9 416 193.5 416 288C416 393.9 329.9 480 224 480zM512 0c-35.38 0-64 28.62-64 64s28.62 63.1 64 63.1s64-28.62 64-63.1S547.4 0 512 0zM512 96c-17.62 0-32-14.38-32-32s14.38-32 32-32s32 14.38 32 32S529.6 96 512 96z"/></svg>
